X:1
T:The Sandhurst Waltz
T:The Sandhurst Waltz
T:Miss Rockie Hasker
T:Introduction
T:№ 1
C:Miss Rockie Hasker
%%score { ( 1 2 ) | ( 3 4 ) }
L:1/8
Q:1/8=120
M:6/8
K:F
V:1 treble nm="Piano" snm="Pno."
V:2 treble 
V:3 bass 
V:4 bass 
V:1
"^Moderato" (C |!<(! CFA c2 c)!<)! |!>(! AFC A,2 [B,EG]!>)! | [A,F]2 z4 | z6 | %5
!<(! A z (A AB/A/G/A/!<)! |!>(! (B3 E2)) z!>)! |!<(! B z B Bc/B/A/B/!<)! |!>(! c3 F2 z!>)! | %9
!f! (c'c'/a/f/c/) (d'd'/b/g/d/) | (e'e'/b/g/e/) f'!p! z2 | (c'c'/a/f/c/) (d'd'/b/g/d/) | %12
!8va(!!<(! (e'e'/b/g'/e'/ b')!8va)!!<)! |[M:3/4][Q:1/4=120]"^Tempo di Valse" A6 | G6 | F4 c2 | %16
 f2 z2 F2 | E2 z2 c2 | g2 z2 E2 | F2 z2 c2 | f2 z2 z2 | A6 | G6 | F4 c2 | f2 z2 F2 | E2 z2 d2 | %26
 c2 G3 A | F6- |!<(! F2 z4!<)! |!ff! [Aa]6 | [Gg]6 | [Ff]4 [ca]2 | [ff']2 z2 [Ff]2 | %33
 [De]2 z2 [cd']2 | [gg']2 z2 [Ee]2 | [Ff]2 z2 [cc']2 | [ff']2 z2 z2 | [Aa]6 | [Gg]6 | %39
 [Ff]4 [cc']2 | [ff']2 z2 [Ff]2 | [Ee]2 z2 [dd']2 | [cc']2 [Gg]2 [Aa]2 | [Ff]2 efac' | %44
 [af']2!fine! |] z2 (3(g^f=f) |]:[K:C] eg e'2 g2 | d'2 z2 g2 | c'2 z2 _b2 | f2 z2 (3(fe_e) | %50
 (df c'2) f2 | _b2 z2 f2 | a2 z2 g2 | e2 z2 (3(g^f=f) | (eg e'2) g2 | d'2 z2 g2 | c'2 z2 _b2 | %57
 f2 z2 (3(fe_e) | (df c'2) f2 | _b3 afd |1 c6- | c2 z2 (3(g^f=f) :|2 c2!<(! z2 z2!<)! | %63
 c2!>(! z2 C2!>)!!D.C.! |][K:Bb][M:3/4]"_№ 2"!p![Q:1/4=120] F2 | B6- | B6 | A6- | A6 | G6- | %70
 G2 A2 B2 | x4 (Bf) | (Bf) x2 x2 | x2 x2 (fb) | x4 (fc') | x4 (fd') | (fd') x2 x2 | x4 (bf') | %78
 (bf') x2 x2 |!<(! x4 (fc')!<)! |!>(! (c'f') x2 x2!>)! | x4 (fb) | x2 (fb) (fb) | x4 (ca) | %84
 x2 (ca) (ca) | x4 (Bg) | x6 | x4 (Bf) | (Bf) x2 x2 | x4 (fb) | x4 (fc') | x4 (fd') | (fd') x2 x2 | %93
 x2 (ec') (ec') | x6 | x4 (db) | x4 |][K:F][M:3/4]"_№ 3"!f![Q:1/4=120] c'2 |S d'3 e g2 | %99
!<(!!8va(! (3(egb) (3e'g'b' (3c''d''e''!<)! | [f'f'']3 a' c''2!8va)! | z2 c'2 c'2 | d'3 e g2 | %103
!<(!!8va(! (3(egb) (3e'g'b' (3c''d''e''!<)! | [f'f'']3 a' c''2!8va)! | %105
 z2 !arpeggio![cfac']2 !arpeggio![cfac']2 | z2 !arpeggio![cfac']2 !arpeggio![cfac']2 | %107
 z2 [cc']2 [ee']2 | [gg']3 f' ad' | c'2 !arpeggio![cfac']2 !arpeggio![cfac']2 | %110
 z2 !arpeggio![dfbd']2 !arpeggio![dfbd']2 | z2 !arpeggio![egbe']2 !arpeggio![egbe']2 | [fac'f']6- | %113
 [fac'f']2!fine! |] f2 f2 |: !turn!f2 e2 d2 | z2 d3 c | d4 c2 | z2 f3 c | f4 e2 | z2 e3 d | (d6 | %122
 c2) f2 f2 | !turn!f2 e2 d2 | z2 d3 c | d4 c2 | z2 f3 c | f4 e2 | d4 g2 | (g6 |]1 c2) d2 e2 :|2 %131
 f3 a c'2!D.S.! |]!p!"_№ 4"[Q:1/4=120] (3[FA][FA][FA] | [EG]2 z2 (3[GB][GB][GB] | %134
 [FA]2 z2"_cresc." (3[FA][FA][FA] | [EG]2 z2 (3[GB][GB][GB] | [FA]2 z2 (3[Af][Af][Af] | %137
 [Ge]2 z2 (3[Bg][Bg][Bg] | [A^f]2 z2 (3[ca][ca][ca] |!ff! [cb]2 z2 [ca]2 | [cb]2 z2!p! z2 | %141
 F2 z2 [FA]2 | [Ac]2 z2 [Af]2 | f4 e2 | g6 | A4 c2 | F2 [EG]2 [FA]2 | [Ec]2 [Ge]2 [Fd]2 | %148
 [Ec]4 z2 |"_cresc." F2 z2 [FA]2 | [Ac]2 z2 [Af]2 | f4!<(! e2!<)! |[K:F]!<(! f4 f2!<)! | %153
!f! [=Aa]2 A2 d2 |"_dim." c2 [Bg]2 [Bc]2 | [Af]6- | [Af]2 z2!f! [G_dg]2 || %157
[K:Ab] !>![Aca]2 z2 [Ee]2 | [Ff]2 z2 [Gg]2 | [Aa]2 z2 [cc']2 | [ff']2 z2 [ee']2 | [dd']2 z2 [Gg]2 | %162
 [cc']2 z2 [Bb]2 | [Bb]2 [Aa]3 [Ff] | [Ee]2 z2 [Ee]2 | !>![Aa]2 z2"_cresc." [Ee]2 | %166
 [Ff]2 z2 [Gg]2 | [Aa]2 z2 [cc']2 | [ff']2 z2 [ee']2 |!ff! [gg']6- | [gg']2 [=d=d']3 [ee'] | %171
"_dim." [cc']6 | (([ee']6 | [Aa]2)) z2 [Ee]2 | [Ff]2 z2 [Gg]2 | [Aa]2 z2 [cc']2 | %176
 [ff']2 z2 [ee']2 | [dd']2 z2 [Gg]2 | [cc']2 z2 [Bb]2 | [Bb]2 [Aa]3 [Ff] | %180
 [Ee]2 z2"_cresc." [Ee]2 | [Aa]2 z2 [Ee]2 | [Ff]2 z2 [Gg]2 | [Aa]2 z2 [cc']2 | %184
 [ee']2 [=d=d']2 [cc']2 |!ff!!8va(! [gc'=e'g']6- | [gc'e'g']2!8va)! [=d=d']3 [=e=e'] | [cc']6- | %188
 [cc']2!p! z2 [Cc]2 ||[K:F] [Aa]6 | [Gg]6 | [Ff]4 [cc']2 | [ff']2 z2 [Ff]2 | [Ee]2 z2 [cc']2 | %194
 [gg']2 z2 [Ee]2 | [Ff]2 z2 [cc']2 | [ff']2 z2 z2 | [Aa]6 | [Gg]6 | [Ff]4 [cc']2 | %200
 [ff']2 z2 [Ff]2 | [Fe]2 z2 [dd']2 | [cc']2 [Gg]2 [Aa]2 | [Ff]2!<(! efac'!<)! | %204
!mf! f'2 z2 (3(g^f=f) ||[K:C] (eg e'2) g2 | d'2 z2 g2 | c'2 z2 b2 | f2 z2 (3(fe_e) | (df c'2) f2 | %210
 b2 z2 f2 | a2 z2 g2 | e2 z2 (3(g^f=f) | (eg e'2) g2 | d'2 z2 g2 | c'2 z2 b2 | f2 z2 (3(fe_e) | %217
 (df c'2) f2 | b3 afd | c6- | c2 z2 c2 ||[K:F]!ff! [Aca]6 | [GBcg]6 | [FAcf]4 [cc']2 | %224
 [ff']2 z2 [Fcf]2 | [Ece]2 z2 [cc']2 | [gg']2 z2 [Ee]2 | [Ff]2 z2 [cc']2 | [ff']2 z2 z2 | [Aca]6 | %230
 [GBcg]6 | [FAcf]4 [cc']2 | [ff']2 z2 [Fcf]2 | [Ece]2 z2 [dd']2 | [cc']2 [Gg]2 [Aa]2 | %235
 [Ff]2!<(! efac'!<)! | [af']2 z2!ff!!8va(! [c'e'g']2 | [c'f'a']2 z2 [c'e'g']2 | [c'f'a']2 z2 z2 | %239
 [e'g'c'']2 z2 z2 | [a'c''f'']4 z2!8va)! | z6 |!>(! [cegc']6- |"_dim." [cegc']6 | %244
 [faf']2!>)! z2 z2 | z6 |!p! [A,CF]2 z2 z2 | [A,CF]2 z2 z2 | [A,CF]2 z2 z2 | z6 |!pp! [F,E]4 z2 | %251
 [F,E]4 z2 | [F,E]6 |] %253
V:2
 (c | cfa c'2 c') | afc A2 x | x6 | x6 | x6 | x6 | x6 | x6 | x6 | x6 | x6 |!8va(! x4!8va)! | %13
[M:3/4] x6 | x6 | x6 | x6 | x6 | x6 | x6 | x6 | x6 | x6 | x6 | x6 | x6 | x6 | x6 | x6 | x6 | x6 | %31
 x6 | x6 | x6 | x6 | x6 | x6 | x6 | x6 | x6 | x6 | x6 | x6 | x6 | x2 |] x4 |]:[K:C] x6 | x6 | x6 | %49
 x6 | x6 | x6 | x6 | x6 | x6 | x6 | x6 | x6 | x6 | x6 |1 x6 | x6 :|2 x6 | x6 |][K:Bb][M:3/4] x2 | %65
 x4 (fb) | x2 (fb) (fb) | x4 (ca) | x2 (ca) (ca) | x4 (Bg) | x6 | F6- | F2 z2 d2 | B6 | c6 | d6- | %76
 d4 d2 | f6- | f2 e2 d2 | c6- | c4 F2 | B6- | B6 | A6- | A6 | G6- | G2 A2 B2 | F6- | F2 z2 d2 | %89
 B6 | c6 | d6- | d2 d2 d2 | f6- | f2 c3 d | B6- | B4 |][K:F][M:3/4] x2 | x6 |!8va(! x6 | x6!8va)! | %101
 x6 | x6 |!8va(! x6 | x6!8va)! | x6 | x6 | x6 | x6 | x6 | x6 | x6 | x6 | x2 |] x4 |: x6 | x6 | x6 | %118
 x6 | x6 | x6 | x6 | x6 | x6 | x6 | x6 | x6 | x6 | x6 | x6 |]1 x6 :|2 x6 |] x2 | x6 | x6 | x6 | %136
 x6 | x6 | x6 | x6 | x6 | x6 | x6 | B6- | B6 | x6 | x6 | x6 | x6 | x6 | x6 | _B6 |[K:F] _A6 | x6 | %154
 x6 | x6 | x6 ||[K:Ab] x6 | x6 | x6 | x6 | x6 | x6 | x6 | x6 | x6 | x6 | x6 | x6 | x6 | x6 | x6 | %172
 x6 | x6 | x6 | x6 | x6 | x6 | x6 | x6 | x6 | x6 | x6 | x6 | x6 |!8va(! x6 | x2!8va)! x4 | x6 | %188
 x6 ||[K:F] x6 | x6 | x6 | x6 | x6 | x6 | x6 | x6 | x6 | x6 | x6 | x6 | x6 | x6 | x6 | x6 || %205
[K:C] x6 | x6 | x6 | x6 | x6 | x6 | x6 | x6 | x6 | x6 | x6 | x6 | x6 | x6 | x6 | x6 ||[K:F] x6 | %222
 x6 | x6 | x6 | x6 | x6 | x6 | x6 | x6 | x6 | x6 | x6 | x6 | x6 | x6 | x4!8va(! x2 | x6 | x6 | x6 | %240
 x6!8va)! | x6 | x6 | x6 | x6 | x6 | x6 | x6 | x6 | x6 | x6 | x6 | x6 |] %253
V:3
 x | x2 z4 | x2 x2 x C, | [F,,F,]z!p![F,,F,] [F,,F,]z[F,,F,] | [F,,F,]z[F,,F,] [F,,F,]z[F,,F,] | %5
 F,, z [F,A,C] [F,A,C]2 [F,A,C] | C,, z [G,B,C] [G,B,C]2 [G,B,C] | C, z [G,B,C] [G,B,C]2 [G,B,C] | %8
 F,, z [F,A,C] [F,A,C]2 [F,A,C] | [A,,A,] z [A,CF] [B,,B,] z [G,DG] | [C,C] z [G,B,C] [F,A,C] z2 | %11
 [F,,F,][F,A,C][F,A,C] [B,,,B,,][F,G,B,D][F,G,B,D] | [C,,C,][E,G,B,C][E,G,B,C] [E,G,B,C] | %13
[M:3/4] F,,2 [C,F,A,]2 [C,F,A,]2 | C,,2 [C,E,B,]2 [C,E,B,]2 | F,,2 [C,F,A,]2 [C,F,A,]2 | %16
 F,,2 [C,F,A,]2 [C,F,A,]2 | C,,2 [C,E,B,]2 [C,E,B,]2 | C,2 [E,B,]2 [E,B,]2 | %19
 F,,2 [C,F,A,]2 [C,F,A,]2 | F,,2 [C,F,A,]2 [C,F,A,]2 | F,,2 [C,F,A,]2 [C,F,A,]2 | %22
 C,,2 [C,E,B,]2 [C,E,B,]2 | F,,2 [C,F,A,]2 [C,F,A,]2 | F,,2 [C,F,A,]2 [C,F,A,]2 | %25
 C,,2 [C,E,B,]2 [C,E,B,]2 | C,2 [E,B,]2 [E,B,]2 | F,,2 [C,F,A,]2 [C,F,A,]2 | %28
 [C,F,A,]2 [C,F,A,]2 [C,F,A,]2 | [F,,F,]2 [A,CF]2 [A,CF]2 | [C,,C,]2 [B,CF]2 [B,CF]2 | %31
 [F,,F,]2 [A,CF]2 [A,CF]2 | [F,,F,]2 [A,CF]2 [A,CF]2 | [C,,C,]2 [E,B,C]2 [E,B,C]2 | %34
 [C,,C,]2 [E,B,C]2 [E,B,C]2 | [F,,,F,,]2 [F,A,C]2 [F,A,C]2 | [F,,,F,,]2 [F,A,C]2 [F,A,C]2 | %37
 [F,,F,]2 [A,CF]2 [A,CF]2 | [C,,C,]2 [G,B,C]2 [G,B,C]2 | [F,,F,]2 [A,CF]2 [A,CF]2 | %40
 [F,,F,]2 [A,CF]2 [A,CF]2 | [C,,C,]2 [E,B,C]2 [E,B,C]2 | [C,,C,]2 [E,B,C]2 [E,B,C]2 | %43
 [F,A,C]2 [C,C]2 [A,,A,]2 | [F,,F,]2 |] z2 z2 |]:[K:C] C2 [EG]2 [EG]2 | G,2 [B,F]2 [B,F]2 | %48
 C2 [EG]2 [EG]2 | G,2 [B,F]2 z2 | G,,2 [F,B,D]2 [F,B,D]2 | G,,2 [F,B,D]2 [F,B,D]2 | %52
 C,2 [G,CE]2 [G,CE]2 | C,2 [G,CE]2 z2 | C2 [EG]2 [EG]2 | G,2 [B,F]2 [B,F]2 | C2 [EG]2 [EG]2 | %57
 G,2 [B,F]2 z2 | G,,2 [F,B,D]2 [F,B,D]2 | G,,2 [F,B,D]2 [F,B,D]2 |1 C,2 [E,G,C]2 [E,G,C]2 | %61
 [E,G,C]2 z2 z2 :|2 C,2 [C,C]2 [C,C]2 | [C,C]2 [D,B,]2 [E,_B,]2 |][K:Bb][M:3/4] z2 | %65
 B,,2 [F,B,D]2 [F,B,D]2 | B,,2 [F,B,D]2 [F,B,D]2 | F,,2 [F,CE]2 [F,CE]2 | F,,2 [F,CE]2 [F,CE]2 | %69
 G,,2 [G,B,D]2 [G,B,D]2 | E,,2 [G,B,E]2 [G,B,E]2 | B,,2 [F,B,D]2 [F,B,D]2 | %72
 A,,2 [F,B,D]2 [F,B,D]2 | B,,2 [F,B,D]2 [F,B,D]2 | F,,2 [F,CE]2 [F,CE]2 | B,,2 [F,B,D]2 [F,B,D]2 | %76
 B,,2 [F,B,D]2 [F,B,D]2 | B,,2 [F,B,D]2 [F,B,D]2 | B,,2 [F,B,D]2 [F,B,D]2 | %79
 F,,2 [F,A,C]2 [F,A,C]2 | [CE]2 [B,D]2 [A,C]2 | B,,2 [F,B,D]2 [F,B,D]2 | B,,2 [F,B,D]2 [F,B,D]2 | %83
 F,,2 [F,CE]2 [F,CE]2 | F,,2 [F,CE]2 [F,CE]2 | G,,2 [G,B,D]2 [G,B,D]2 | E,,2 [G,B,E]2 [G,B,E]2 | %87
 B,,2 [F,B,D]2 [F,B,D]2 | B,,2 [F,B,D]2 [F,B,D]2 | B,,2 [F,B,D]2 [F,B,D]2 | F,,2 [F,CE]2 [F,CE]2 | %91
 B,,2 [F,B,D]2 [F,B,D]2 | B,,2 [F,B,D]2 [F,B,D]2 | F,,2 [F,A,E]2 [F,A,E]2 | [F,A,E]2 z2 z2 | %95
 B,,2 [F,B,D]2 [F,B,D]2 | [F,B,D]4 |][K:F][M:3/4] z2 | E,2 [B,C]2 [B,C]2 | C,2 [B,C]2 [B,C]2 | %100
 F,2 [A,C]2 [A,C]2 | C,2 [A,C]2 [A,C]2 | E,2 [B,C]2 [B,C]2 | C,2 [B,C]2 [B,C]2 | %104
 F,2 [A,C]2 [A,C]2 | F,2 [A,C]2 [A,C]2 | B,,2 [F,B,D]2 [F,B,D]2 | C,2 [E,B,C]2 [E,B,C]2 | %108
 F,2 [A,C]2 [A,C]2 | F,2 [A,C]2 [A,C]2 | B,,2 [F,B,D]2 [F,B,D]2 | C,2 [E,G,C]2 [E,G,C]2 | %112
 F,,2 [F,A,C]2 [F,A,C]2 | [F,A,C]2 |] z2 z2 |: F,6 | G,6 | A,6 | F,6 | G,6 | C,6 | F,6 | %122
 C,2 [A,C]2 [A,C]2 | F,2 [A,C]2 [A,C]2 | G,6 | x2 [CF]2 [B,F]2 | x2 [CF]2 [CF]2 | %127
 x2 [=B,D]2 [CE]2 | x2 [=B,F]2 [B,F]2 | x2 [G,_B,E]2 [G,B,E]2 |]1 [G,B,E]2 z2 z2 :|2 %131
 [F,A,CF]2 z2 z2 |] z2 | (!//-!C,,3 C,3) | (!//-!C,,3 C,3) | (!//-!C,,3 C,3) | (!//-!C,,3 C,3) | %137
 (!//-!C,,3 C,3) | (!//-!C,,3 C,3) | !//-!C,,3 C,3 | C,,2 z2 z2 | F,2 [A,C]2 [A,C]2 | %142
 F,2 [A,C]2 [A,C]2 | G,2 C2 C2 | C,2 [G,CE]2 [G,CE]2 | F,2 [A,C]2 [A,C]2 | F,2 [A,C]2 [A,C]2 | %147
 x2 C2 [G,=B,]2 | C2 (B,2 G,2) | x2 [A,C]2 [A,C]2 | x2 [A,C]2 [A,C]2 | x2 [F,=B,]2 [F,B,]2 | %152
[K:F] x2 [F,=B,]2 [F,B,]2 | x2 [F,A,C]2 [F,A,C]2 | [C,,C,]2 [D,,D,]2 [E,,E,]2 | %155
 [F,,F,]2 [A,,A,]2 [C,C]2 | [F,,F,]2 z2 [E,,E,]2 ||[K:Ab] [A,,A,]2 [E,A,C]2 [E,A,C]2 | %158
 [E,,E,]2 [E,A,C]2 [E,A,C]2 | [A,,A,]2 [E,A,C]2 [E,A,C]2 | [E,,E,]2 [E,A,C]2 [F,A,C]2 | %161
 [B,,B,]2 [E,G,D]2 [E,G,D]2 | [E,,E,]2 [E,G,D]2 [E,G,D]2 | [A,,A,]2 [E,A,C]2 [E,A,C]2 | %164
 [E,,E,]2 [E,G,D]2 [E,G,D]2 | [A,,A,]2 [E,A,C]2 [E,A,C]2 | [E,,E,]2 [E,A,C]2 [E,A,C]2 | %167
 [A,,A,]2 [E,A,C]2 [E,A,C]2 | [E,,E,]2 [E,A,C]2 [E,A,C]2 | [E,,E,]2 [F,=B,=D]2 [F,B,D]2 | %170
 [F,=B,=D]2 z2 z2 | C,2 [E,G,C]2 [E,G,C]2 | B,,2 [E,G,D]2 E,,2 | [A,,A,]2 [E,A,C]2 [E,A,C]2 | %174
 [E,,E,]2 [E,A,C]2 [E,A,C]2 | [A,,A,]2 [E,A,C]2 [E,A,C]2 | [E,,E,]2 [E,A,C]2 [E,A,C]2 | %177
 [B,,B,]2 [E,G,D]2 [E,G,D]2 | [E,,E,]2 [E,G,D]2 [E,G,D]2 | [A,,A,]2 [E,A,C]2 [E,A,C]2 | %180
 [E,,E,]2 [E,G,D]2 [E,G,D]2 | [A,,A,]2 [E,A,C]2 [E,A,C]2 | [E,,E,]2 [E,A,C]2 [E,A,C]2 | %183
 [A,,A,]2 [E,A,C]2 [E,A,C]2 | [^F,,^F,]2 [=A,CE]2 [A,CE]2 | [G,,G,]2 [G,C=E]2 [G,CE]2 | %186
 [G,C=E]2 [G,=B,=DF]4 | C,2 [=E,G,C]2 [E,G,C]2 | [=E,G,C]2 z2 z2 ||[K:F] [F,,F,]2 [A,CF]2 [A,CF]2 | %190
 [C,,C,]2 [B,CE]2 [B,CE]2 | [F,,F,]2 [A,CF]2 [A,CF]2 | [F,,F,]2 [A,CF]2 [A,CF]2 | %193
 [C,,C,]2 [E,B,C]2 [E,B,C]2 | [C,,C,]2 [E,B,C]2 [E,B,C]2 | [F,,,F,,]2 [F,A,C]2 [F,A,C]2 | %196
 [F,,,F,,]2 [F,A,C]2 [F,A,C]2 | [F,,F,]2 [A,CF]2 [A,CF]2 | [C,,C,]2 [B,CE]2 [B,CE]2 | %199
 [F,,F,]2 [A,CF]2 [A,CF]2 | [F,,F,]2 [A,CF]2 [A,CF]2 | [C,,C,]2 [E,B,C]2 [E,B,C]2 | %202
 [C,,C,]2 [E,B,C]2 [E,B,C]2 | [F,A,C]2 [C,C]2 [A,,A,]2 | [F,,F,]2 z2 z2 ||[K:C] C2 [EG]2 [EG]2 | %206
 G,2 [B,F]2 [B,F]2 | C2 [EG]2 [EG]2 | G,2 [B,F]2 z2 | G,,2 [F,B,D]2 [F,B,D]2 | %210
 G,,2 [F,B,D]2 [F,B,D]2 | C,2 [G,CE]2 [G,CE]2 | C,2 [G,CE]2 z2 | C2 [EG]2 [EG]2 | %214
 G,2 [B,F]2 [B,F]2 | C2 [EG]2 [EG]2 | G,2 [B,F]2 z2 | G,,2 [F,B,D]2 [F,B,D]2 | %218
 G,,2 [F,B,D]2 [F,B,D]2 | C,2 [C,C]2 [C,C]2 | [C,C]2 [D,B,]2 [E,_B,]2 || %221
[K:F] [F,A,]2 !>![C,,C,]2 !>![D,,D,]2 | !>![E,,E,]2 !>![D,,D,]2 !>![C,,C,]2 | %223
 !>![A,,A,]2 !>![C,C]2 !>![A,,A,]2 | !>![F,,F,]2 !>![A,,A,]2 !>![F,,F,]2 | %225
 !>![B,,B,]2 !>![C,C]2 !>![G,,G,]2 | !>![E,,E,]2 !>![G,,G,]2 !>![C,,C,]2 | %227
 !>![A,,A,]2 !>![C,C]2 !>![A,,A,]2 | !>![F,,F,]2 !>![E,,E,]2 !>![D,,D,]2 | %229
 !>![C,,C,]2 !>![C,,C,]2 !>![D,,D,]2 | !>![E,,E,]2 !>![D,,D,]2 !>![C,,C,]2 | %231
 !>![A,,A,]2 !>![C,C]2 !>![A,,A,]2 | !>![F,,F,]2 !>![A,,A,]2 !>![F,,F,]2 | %233
 !>![B,,B,]2 !>![C,C]2 !>![C,,C,]2 | !>![B,,B,]2 !>![C,C]2 !>![C,,C,]2 | %235
 !>![F,,F,]2 !>![C,C]2 !>![A,,A,]2 | !>![F,,F,]2 z2 !>![C,,C,]2 | !>![F,,F,]2 z2 !>![C,,C,]2 | %238
 !>![F,,F,]2 z2 z2 | !>![C,,C,]2 z2 z2 | !>![F,,,F,,]4 z2 | z6 | [C,,C,]6- | [C,,C,]6 | %244
 [F,,,F,,]2 z2 z2 | z6 | [F,,,F,,]2 z2 z2 | [F,,,F,,]2 z2 z2 | [F,,,F,,]2 z2 z2 | z6 | %250
 [F,,,F,,]4 z2 | [F,,,F,,]4 z2 | [F,,,F,,]6 |] %253
V:4
 x | x6 | x6 | x6 | x6 | x6 | x6 | x6 | x6 | x6 | x6 | x6 | x4 |[M:3/4] x6 | x6 | x6 | x6 | x6 | %18
 x6 | x6 | x6 | x6 | x6 | x6 | x6 | x6 | x6 | x6 | x6 | x6 | x6 | x6 | x6 | x6 | x6 | x6 | x6 | %37
 x6 | x6 | x6 | x6 | x6 | x6 | x6 | x2 |] x4 |]:[K:C] x6 | x6 | x6 | x6 | x6 | x6 | x6 | x6 | x6 | %55
 x6 | x6 | x6 | x6 | x6 |1 x6 | x6 :|2 x6 | x6 |][K:Bb][M:3/4] x2 | x6 | x6 | x6 | x6 | x6 | x6 | %71
 x6 | x6 | x6 | x6 | x6 | x6 | x6 | x6 | x6 | F,6 | x6 | x6 | x6 | x6 | x6 | x6 | x6 | x6 | x6 | %90
 x6 | x6 | x6 | x6 | x6 | x6 | x4 |][K:F][M:3/4] x2 | x6 | x6 | x6 | x6 | x6 | x6 | x6 | x6 | x6 | %107
 x6 | x6 | x6 | x6 | x6 | x6 | x2 |] x4 |: x2 [A,C]2 [A,C]2 | x2 [B,C]2 [B,C]2 | x2 [CF]2 [CF]2 | %118
 x2 [A,C]2 [A,C]2 | x2 [B,C]2 [B,C]2 | x2 [B,C]2 [B,C]2 | x2 [A,C]2 [A,C]2 | x6 | x6 | %124
 x2 [B,C]2 [B,C]2 | A,6 | _A,6 | G,6 | G,6 | C,6- |]1 C,2 x2 x2 :|2 x6 |] x2 | x6 | x6 | x6 | x6 | %137
 x6 | x6 | x6 | x6 | x6 | x6 | x6 | x6 | x6 | x6 | G,4 x2 | C,6 | F,6 | _E,6 | D,6 |[K:F] _D,6 | %153
 C,6 | x6 | x6 | x6 ||[K:Ab] x6 | x6 | x6 | x6 | x6 | x6 | x6 | x6 | x6 | x6 | x6 | x6 | x6 | x6 | %171
 x6 | x6 | x6 | x6 | x6 | x6 | x6 | x6 | x6 | x6 | x6 | x6 | x6 | x6 | x6 | x6 | x6 | x6 || %189
[K:F] x6 | x6 | x6 | x6 | x6 | x6 | x6 | x6 | x6 | x6 | x6 | x6 | x6 | x6 | x6 | x6 ||[K:C] x6 | %206
 x6 | x6 | x6 | x6 | x6 | x6 | x6 | x6 | x6 | x6 | x6 | x6 | x6 | x6 | x6 ||[K:F] x6 | x6 | x6 | %224
 x6 | x6 | x6 | x6 | x6 | x6 | x6 | x6 | x6 | x6 | x6 | x6 | x6 | x6 | x6 | x6 | x6 | x6 | x6 | %243
 x6 | x6 | x6 | x6 | x6 | x6 | x6 | x6 | x6 | x6 |] %253

